img/icons/project/5.svg

<svg width="54" height="49" viewBox="0 0 54 49" fill="none" xmlns="http://www.w3.org/2000/svg">
<path d="M2.94072 14.3292L7.41779 9.85258L11.8947 14.3292C12.231 14.6653 12.6718 14.8335 13.1127 14.8335C13.5536 14.8335 13.9943 14.6653 14.3307 14.3292C15.0034 13.6565 15.0034 12.5659 14.3307 11.8933L9.85397 7.41685L14.3309 2.94044C15.0036 2.26779 15.0036 1.17719 14.3309 0.504534C13.658 -0.167936 12.5676 -0.167936 11.8947 0.504534L7.41779 4.98094L2.94072 0.504352C2.26781 -0.168117 1.17745 -0.168117 0.504544 0.504352C-0.168181 1.177 -0.168181 2.26761 0.504544 2.94026L4.98144 7.41667L0.504726 11.8933C-0.167999 12.5659 -0.167999 13.6565 0.504726 14.3292C0.841088 14.6653 1.28181 14.8335 1.72272 14.8335C2.16363 14.8335 2.60435 14.6653 2.94072 14.3292Z" fill="#343434"/>
<path d="M37.1111 34.6709C36.4382 33.9984 35.3479 33.9984 34.675 34.6709L30.1981 39.1473L25.721 34.6709C25.0481 33.9984 23.9577 33.9984 23.2848 34.6709C22.6121 35.3437 22.6121 36.4341 23.2848 37.1068L27.7619 41.5832L23.2848 46.0598C22.6121 46.7324 22.6121 47.823 23.2848 48.4957C23.6212 48.8318 24.0619 49 24.5028 49C24.9437 49 25.3844 48.8318 25.7208 48.4957L30.1979 44.0191L34.6748 48.4955C35.0111 48.8316 35.4519 48.9998 35.8928 48.9998C36.3337 48.9998 36.7744 48.8316 37.1108 48.4955C37.7835 47.8226 37.7835 46.7322 37.1108 46.0596L32.6339 41.5832L37.1108 37.1068C37.7839 36.4341 37.7839 35.3433 37.1111 34.6709Z" fill="#343434"/>
<path d="M37.245 10.5192L30.2983 4.4811C29.5803 3.85681 28.4923 3.93335 27.8683 4.65109C27.2441 5.369 27.3203 6.4567 28.0383 7.08081L31.7223 10.283C20.8489 11.705 14.4107 17.3866 10.8316 22.1889C7.5251 26.6255 6.07602 30.9907 5.5542 32.915C5.89802 32.8694 6.24783 32.8434 6.60383 32.8434C7.45765 32.8434 8.27964 32.9806 9.05091 33.2317C9.62582 31.3363 10.9707 27.7305 13.6769 24.1365C18.1567 18.187 24.38 14.6832 32.2088 13.6868L28.7761 17.6353C28.1519 18.3532 28.2281 19.4409 28.9461 20.065C29.2723 20.3486 29.6748 20.4875 30.0754 20.4875C30.5568 20.4875 31.0356 20.2868 31.3761 19.895L37.4148 12.9489C38.0392 12.231 37.963 11.1433 37.245 10.5192Z" fill="#343434"/>
<path d="M6.60414 35.6802C3.79761 35.6802 1.51416 37.9632 1.51416 40.7696C1.51416 43.576 3.79742 45.8592 6.60414 45.8592C9.41086 45.8592 11.6943 43.576 11.6943 40.7696C11.6943 37.9632 9.41086 35.6802 6.60414 35.6802Z" fill="#343434"/>
<path d="M48.91 6.39453C46.1033 6.39453 43.8198 8.67755 43.8198 11.484C43.8198 14.2904 46.1031 16.5736 48.91 16.5736C51.7165 16.5736 54 14.2906 54 11.484C54 8.67773 51.7167 6.39453 48.91 6.39453Z" fill="#343434"/>
</svg>

<svg width="54" height="49" fill="none" xmlns="http://www.w3.org/2000/svg"><path d="M2.94 14.33l4.478-4.477 4.477 4.476c.336.336.777.505 1.218.505a1.722 1.722 0 0 0 1.218-2.94L9.854 7.416l4.477-4.477A1.722 1.722 0 1 0 11.895.505L7.418 4.98 2.94.504A1.723 1.723 0 0 0 .505 2.94L4.98 7.417.505 11.893A1.722 1.722 0 1 0 2.94 14.33zm34.171 20.34a1.723 1.723 0 0 0-2.436 0l-4.477 4.477-4.477-4.476a1.723 1.723 0 0 0-2.436 2.436l4.477 4.476-4.477 4.477a1.722 1.722 0 1 0 2.436 2.436l4.477-4.477 4.477 4.477c.336.336.777.504 1.218.504a1.722 1.722 0 0 0 1.218-2.94l-4.477-4.477 4.477-4.476a1.722 1.722 0 0 0 0-2.436zm.134-24.15l-6.947-6.04a1.722 1.722 0 0 0-2.26 2.6l3.684 3.202c-10.873 1.422-17.311 7.104-20.89 11.906-3.307 4.436-4.756 8.802-5.278 10.726a7.89 7.89 0 0 1 3.497.317 29.93 29.93 0 0 1 4.626-9.096c4.48-5.949 10.703-9.453 18.532-10.45l-3.433 3.95a1.722 1.722 0 1 0 2.6 2.259l6.039-6.946a1.722 1.722 0 0 0-.17-2.43zM6.604 35.68a5.095 5.095 0 0 0-5.09 5.09 5.096 5.096 0 0 0 5.09 5.09 5.096 5.096 0 0 0 5.09-5.09 5.095 5.095 0 0 0-5.09-5.09zM48.91 6.395a5.096 5.096 0 0 0-5.09 5.089 5.096 5.096 0 0 0 5.09 5.09 5.096 5.096 0 0 0 5.09-5.09 5.096 5.096 0 0 0-5.09-5.09z" fill="#343434"/></svg>
